X: 19
T:Qu'il est Doux de ne Rien Faire
M:3/8
L:1/16
R:Bourree
K:G
D2 | GFGABG | cBAGFG | ADEFGA | F2D2D2 | GFGABG |
cBAGFG | ADEFGA | G4::F2 | EFGEAG | F2D2D2 | EFGABc |
B3AG2 | EFGEAG | F2D2D2 | EFGABc|1 d6 :|2 d4 ||

